X: 133
T: No_217_Feeding_the_Fire_(d).krn
N: Derived from No_217_Feeding_the_Fire_(d).krn
%%abc-version 2.0
%%abcx-abcm2ps-target-version 5.9.1 (29 Sep 2008)
%%abc-creator hum2abc beta
%%abcx-conversion-date 2019/03/15 08:38:45
%%humdrum-veritas 3151413040
%%humdrum-veritas-data 655324553
%%linebreak <none>
%%barnumbers 0
L: 1/8
M: 2/4
K: E clef=bass
[K:clef=bass][M:2/4]z2z3/ B,/ | 
B,2A,B, ]|:  
A,/F,3/E,2 ||  
[M:5/8]F,(E,/C,/)E,//E,3//B,,B,,/ z/ ||  
[M:4/8]E,/E,/ E,/E,/ F,3/G,/ ||  
(F,2E,) z ||  
[M:3/4]F,C, E,/E,/C,C,2 ||  
[M:2/4]B,/B,3/ A,B, :|]  
F,C, E,/E,/C, | 
C,2A,=F, ||  
[M:3/4]A,6 | 
[M:2/4]=C,/C,/C, =D,C, |]  



